Costumes/I-story-3.svg

<?xml version="1.0" encoding="utf-8"?>
<!-- Generator: Adobe Illustrator 18.0.0, SVG Export Plug-In . SVG Version: 6.00 Build 0)  -->
<!DOCTYPE svg PUBLIC "-//W3C//DTD SVG 1.1//EN" "http://www.w3.org/Graphics/SVG/1.1/DTD/svg11.dtd">
<svg version="1.1" id="Layer_2" xmlns="http://www.w3.org/2000/svg" xmlns:xlink="http://www.w3.org/1999/xlink" x="0px" y="0px"
	 viewBox="0 0 15.2 47.9" enable-background="new 0 0 15.2 47.9" xml:space="preserve">
<g>
	<path fill="#41A2F2" d="M11,18.1c-0.1,3.6,0,7.3,0.1,10.9c0,4.4,0.1,8.9,0.1,13.3c0,0.3,0,0.5,0,0.8c0.1,1.5,0.5,1.9,2,2
		c0.1,0,0.2,0,0.2,0c1.3,0.2,1.9,1,1.5,2.3c-0.1,0.3-0.7,0.5-1,0.5c-1.8,0-3.6-0.1-5.4-0.1c-2.4-0.1-4.9-0.2-7.3-0.3
		c-1.1,0-1.2-0.2-1.1-1.3c0-0.5,0.3-0.7,0.8-0.8c0.5,0,1,0,1.5-0.2c0.4-0.1,0.8-0.3,1-0.6c0.6-0.8,1-1.6,1.1-2.6
		c0.4-3.3,0-6.6,0-9.8c-0.1-6.6-0.2-13.1-0.3-19.7c0-1.1-0.1-2.3-0.1-3.4c0-1.8,0-3.6,0-5.4c0-0.9-0.3-1.3-1.2-1.4
		c-0.2,0-0.4,0-0.6,0c-2,0-1.6-0.1-1.7-1.7C0.4,0.2,0.6,0,1.1,0C2,0,3,0,4,0c0,0,0,0.1,0,0.1c3.2,0,6.5,0,9.7,0
		c1.4,0,1.5,0.2,1.4,1.5c0,0.4-0.2,0.6-0.6,0.6c-0.4,0-0.7,0.1-1.1,0.2c-1.3,0.4-1.7,0.7-1.8,2.1c-0.1,0.9-0.1,1.8-0.2,2.7
		C11.3,10.9,11.1,14.5,11,18.1z"/>
</g>
</svg>

<?xml version="1.0" encoding="UTF-8" standalone="no"?>
<!-- Generator: Adobe Illustrator 18.0.0, SVG Export Plug-In . SVG Version: 6.00 Build 0)  -->

<svg
   version="1.1"
   id="Layer_2"
   x="0px"
   y="0px"
   viewBox="0 0 15.05816 47.9"
   enable-background="new 0 0 15.2 47.9"
   xml:space="preserve"
   sodipodi:docname="I-story-3.svg"
   width="15.05816"
   height="47.900002"
   xmlns:inkscape="http://www.inkscape.org/namespaces/inkscape"
   xmlns:sodipodi="http://sodipodi.sourceforge.net/DTD/sodipodi-0.dtd"
   xmlns="http://www.w3.org/2000/svg"
   xmlns:svg="http://www.w3.org/2000/svg"><defs
   id="defs9" /><sodipodi:namedview
   id="namedview7"
   pagecolor="#ffffff"
   bordercolor="#000000"
   borderopacity="0.25"
   inkscape:showpageshadow="2"
   inkscape:pageopacity="0.0"
   inkscape:pagecheckerboard="0"
   inkscape:deskcolor="#d1d1d1" />
<g
   id="g4"
   transform="translate(-0.07009619)">
	<path
   fill="#41a2f2"
   d="m 11,18.1 c -0.1,3.6 0,7.3 0.1,10.9 0,4.4 0.1,8.9 0.1,13.3 0,0.3 0,0.5 0,0.8 0.1,1.5 0.5,1.9 2,2 0.1,0 0.2,0 0.2,0 1.3,0.2 1.9,1 1.5,2.3 -0.1,0.3 -0.7,0.5 -1,0.5 -1.8,0 -3.6,-0.1 -5.4,-0.1 C 6.1,47.7 3.6,47.6 1.2,47.5 0.1,47.5 0,47.3 0.1,46.2 c 0,-0.5 0.3,-0.7 0.8,-0.8 0.5,0 1,0 1.5,-0.2 0.4,-0.1 0.8,-0.3 1,-0.6 C 4,43.8 4.4,43 4.5,42 4.9,38.7 4.5,35.4 4.5,32.2 4.4,25.6 4.3,19.1 4.2,12.5 4.2,11.4 4.1,10.2 4.1,9.1 4.1,7.3 4.1,5.5 4.1,3.7 4.1,2.8 3.8,2.4 2.9,2.3 2.7,2.3 2.5,2.3 2.3,2.3 0.3,2.3 0.7,2.2 0.6,0.6 0.4,0.2 0.6,0 1.1,0 2,0 3,0 4,0 c 0,0 0,0.1 0,0.1 3.2,0 6.5,0 9.7,0 1.4,0 1.5,0.2 1.4,1.5 0,0.4 -0.2,0.6 -0.6,0.6 -0.4,0 -0.7,0.1 -1.1,0.2 -1.3,0.4 -1.7,0.7 -1.8,2.1 -0.1,0.9 -0.1,1.8 -0.2,2.7 -0.1,3.7 -0.3,7.3 -0.4,10.9 z"
   id="path2" />
</g>
</svg>
